X:1
T:Title
%%score 1 2
L:1/8
Q:1/4=90
M:3/8
K:Bb
V:1 treble nm="Grand Piano, Soprano"
V:2 bass nm="Choir Pad, Beneath the Cross"
V:1
 [B,D][CE][_D=E] | [DF]2 [DF] | [DF][Fd][Ec] | [DB]3 | [EB][EA][Ec] | [EG][EA][EG] | [EG][DF][DB] | %7
w: By~Edward~E.~Nickerson,~1886 * *|||||||
 [DF]3 | [B,D][CE][_D=E] | [DF][DF][DF] | [DF][Fd][Ec] | [DB]2 [DF] | [EG][EA][EB] | [Ec]2 [EA] | %14
w: |||||||
 [DB]3 | [DB]2 z | [B,D][CE][_D=E] | [DF]2 [DF] | [DF][Fd][Ec] | [DB]3 | [EB][EA][Ec] | %21
w: |||||||
 [EG][EA][EG] | [EG][DF][DB] | [DF]3 | [B,D][CE][_D=E] | [DF]2 [DF] | [DF][Fd][Ec] | [DB]2 [DF] | %28
w: |||||||
 [EG][EA][EB] | [Ec]2 [EA] | [DB]3 | [DB]3- | [DB]3 |] %33
w: |||||
V:2
 [B,,B,][B,,A,][B,,G,] | [B,,F,]2 [B,,B,] | [B,,B,][B,,B,][B,,B,] | [B,,B,]3 | [F,C][F,C][F,C] | %5
 [F,A,][F,A,][F,A,] | [B,,B,][B,,B,][B,,F,] | [B,,B,]3 | [B,,B,][B,,A,][B,,G,] | %9
 [B,,F,][B,,F,][B,,B,] | [B,,B,][B,,B,][B,,B,] | [B,,B,]2 [B,,B,] | [E,B,][F,B,][G,B,] | %13
 [F,A,]2 [F,C] | [B,,B,]3 | [B,,B,]2 z | [B,,B,][B,,A,][B,,G,] | [B,,F,]2 [B,,B,] | %18
 [B,,B,][B,,B,][B,,B,] | [B,,B,]3 | [F,C][F,C][F,C] | [F,A,][F,A,][F,A,] | [B,,B,][B,,B,][B,,F,] | %23
 [B,,B,]3 | [B,,B,][B,,B,][B,,G,] | [B,,F,]2 [B,,B,] | [B,,B,][B,,B,][B,,B,] | [B,,B,]2 [B,,B,] | %28
 [E,B,][F,B,][G,B,] | [F,A,]2 [F,C] | [B,,B,]3 | [B,,B,]3- | [B,,B,]3 |] %33

